X:125
T:Ossianic Air
T:D\`an Oisein
R:Slow Air
S:Simon Fraser Collection
N:No.27
O:Scottish
M:2/4
L:1/8
Q:1/4=120
K:D Minor
FF F>G|AG F2|GG d>^c|dc/B/ B2|BB d>c|cA A2|FF G>A|F>E D2:|
|:Add>^c|Ac d2|FF d>c|B3/2c/4B/4 A2|FF d>c|cA A2|FF G>A|F>E D2:|

